static/img/kroki/1646a8141425ce086c7e4ca8b445528d.svg

<?xml version="1.0" encoding="us-ascii" standalone="no"?><svg xmlns="http://www.w3.org/2000/svg" xmlns:xlink="http://www.w3.org/1999/xlink" contentStyleType="text/css" height="374px" preserveAspectRatio="none" style="width:409px;height:374px;" version="1.1" viewBox="0 0 409 374" width="409px" zoomAndPan="magnify"><defs/><g><!--class aws_resource--><g id="elem_aws_resource"><rect codeLine="23" fill="#3D176E" height="39.7891" id="aws_resource" rx="2.5" ry="2.5" style="stroke:#000D19;stroke-width:0.5;" width="155" x="7" y="167.79"/><ellipse cx="22" cy="187.6845" fill="#ADD1B2" rx="11" ry="11" style="stroke:#181818;stroke-width:1.0;"/><path d="M24.9688,193.3252 Q24.3906,193.622 23.75,193.7627 Q23.1094,193.9189 22.4063,193.9189 Q19.9063,193.9189 18.5781,192.2783 Q17.2656,190.622 17.2656,187.497 Q17.2656,184.372 18.5781,182.7158 Q19.9063,181.0595 22.4063,181.0595 Q23.1094,181.0595 23.75,181.2158 Q24.4063,181.372 24.9688,181.6689 L24.9688,184.3877 Q24.3438,183.8095 23.75,183.5439 Q23.1563,183.2627 22.5313,183.2627 Q21.1875,183.2627 20.5,184.3408 Q19.8125,185.4033 19.8125,187.497 Q19.8125,189.5908 20.5,190.6689 Q21.1875,191.7314 22.5313,191.7314 Q23.1563,191.7314 23.75,191.4658 Q24.3438,191.1845 24.9688,190.6064 L24.9688,193.3252 Z " fill="#000000"/><text fill="#D9B8FF" font-family="Helvetica" font-size="17" lengthAdjust="spacing" textLength="113" x="41" y="193.5698">aws_resource</text></g><!--class aws_vpc_peering_connection--><g id="elem_aws_vpc_peering_connection"><rect codeLine="26" fill="#3D176E" height="39.7891" id="aws_vpc_peering_connection" rx="2.5" ry="2.5" style="stroke:#000D19;stroke-width:0.5;" width="284" x="49.5" y="328.58"/><ellipse cx="64.5" cy="348.4745" fill="#ADD1B2" rx="11" ry="11" style="stroke:#181818;stroke-width:1.0;"/><path d="M67.4688,354.1152 Q66.8906,354.412 66.25,354.5527 Q65.6094,354.7089 64.9063,354.7089 Q62.4063,354.7089 61.0781,353.0683 Q59.7656,351.412 59.7656,348.287 Q59.7656,345.162 61.0781,343.5058 Q62.4063,341.8495 64.9063,341.8495 Q65.6094,341.8495 66.25,342.0058 Q66.9063,342.162 67.4688,342.4589 L67.4688,345.1777 Q66.8438,344.5995 66.25,344.3339 Q65.6563,344.0527 65.0313,344.0527 Q63.6875,344.0527 63,345.1308 Q62.3125,346.1933 62.3125,348.287 Q62.3125,350.3808 63,351.4589 Q63.6875,352.5214 65.0313,352.5214 Q65.6563,352.5214 66.25,352.2558 Q66.8438,351.9745 67.4688,351.3964 L67.4688,354.1152 Z " fill="#000000"/><text fill="#D9B8FF" font-family="Helvetica" font-size="17" lengthAdjust="spacing" textLength="242" x="83.5" y="354.3598">aws_vpc_peering_connection</text></g><!--class peering_connection--><g id="elem_peering_connection"><rect codeLine="29" fill="#3D176E" height="39.7891" id="peering_connection" rx="2.5" ry="2.5" style="stroke:#000D19;stroke-width:0.5;" width="205" x="197" y="167.79"/><ellipse cx="212" cy="187.6845" fill="#ADD1B2" rx="11" ry="11" style="stroke:#181818;stroke-width:1.0;"/><path d="M214.9688,193.3252 Q214.3906,193.622 213.75,193.7627 Q213.1094,193.9189 212.4063,193.9189 Q209.9063,193.9189 208.5781,192.2783 Q207.2656,190.622 207.2656,187.497 Q207.2656,184.372 208.5781,182.7158 Q209.9063,181.0595 212.4063,181.0595 Q213.1094,181.0595 213.75,181.2158 Q214.4063,181.372 214.9688,181.6689 L214.9688,184.3877 Q214.3438,183.8095 213.75,183.5439 Q213.1563,183.2627 212.5313,183.2627 Q211.1875,183.2627 210.5,184.3408 Q209.8125,185.4033 209.8125,187.497 Q209.8125,189.5908 210.5,190.6689 Q211.1875,191.7314 212.5313,191.7314 Q213.1563,191.7314 213.75,191.4658 Q214.3438,191.1845 214.9688,190.6064 L214.9688,193.3252 Z " fill="#000000"/><text fill="#D9B8FF" font-family="Helvetica" font-size="17" lengthAdjust="spacing" textLength="163" x="231" y="193.5698">peering_connection</text></g><!--class resource--><g id="elem_resource"><rect codeLine="32" fill="#3D176E" height="39.7891" id="resource" rx="2.5" ry="2.5" style="stroke:#000D19;stroke-width:0.5;" width="113" x="135" y="7"/><ellipse cx="150" cy="26.8945" fill="#ADD1B2" rx="11" ry="11" style="stroke:#181818;stroke-width:1.0;"/><path d="M152.9688,32.5352 Q152.3906,32.832 151.75,32.9727 Q151.1094,33.1289 150.4063,33.1289 Q147.9063,33.1289 146.5781,31.4883 Q145.2656,29.832 145.2656,26.707 Q145.2656,23.582 146.5781,21.9258 Q147.9063,20.2695 150.4063,20.2695 Q151.1094,20.2695 151.75,20.4258 Q152.4063,20.582 152.9688,20.8789 L152.9688,23.5977 Q152.3438,23.0195 151.75,22.7539 Q151.1563,22.4727 150.5313,22.4727 Q149.1875,22.4727 148.5,23.5508 Q147.8125,24.6133 147.8125,26.707 Q147.8125,28.8008 148.5,29.8789 Q149.1875,30.9414 150.5313,30.9414 Q151.1563,30.9414 151.75,30.6758 Q152.3438,30.3945 152.9688,29.8164 L152.9688,32.5352 Z " fill="#000000"/><text fill="#D9B8FF" font-family="Helvetica" font-size="17" lengthAdjust="spacing" textLength="71" x="169" y="32.7798">resource</text></g><!--reverse link resource to aws_resource--><g id="link_resource_aws_resource"><path codeLine="35" d="M168.5333,61.9786 C147.9733,92.4986 118.05,136.9 97.45,167.46 " fill="none" id="resource-backto-aws_resource" style="stroke:#FFAF37;stroke-width:2.0;"/><polygon fill="none" points="178.59,47.05,163.5571,58.6263,173.5095,65.3308,178.59,47.05" style="stroke:#FFAF37;stroke-width:2.0;"/></g><!--reverse link aws_resource to aws_vpc_peering_connection--><g id="link_aws_resource_aws_vpc_peering_connection"><path codeLine="36" d="M107.4667,222.7686 C128.0267,253.2886 157.95,297.69 178.55,328.25 " fill="none" id="aws_resource-backto-aws_vpc_peering_connection" style="stroke:#FFAF37;stroke-width:2.0;"/><polygon fill="none" points="97.41,207.84,102.4905,226.1208,112.4429,219.4163,97.41,207.84" style="stroke:#FFAF37;stroke-width:2.0;"/></g><!--reverse link peering_connection to aws_vpc_peering_connection--><g id="link_peering_connection_aws_vpc_peering_connection"><path codeLine="37" d="M276.3463,222.7232 C255.5863,253.2432 225.36,297.69 204.57,328.25 " fill="none" id="peering_connection-backto-aws_vpc_peering_connection" style="stroke:#FFAF37;stroke-width:2.0;"/><polygon fill="none" points="286.47,207.84,271.3852,219.3487,281.3074,226.0978,286.47,207.84" style="stroke:#FFAF37;stroke-width:2.0;"/></g><!--reverse link resource to peering_connection--><g id="link_resource_peering_connection"><path codeLine="38" d="M214.6537,61.9332 C235.4137,92.4532 265.64,136.9 286.43,167.46 " fill="none" id="resource-backto-peering_connection" style="stroke:#FFAF37;stroke-width:2.0;"/><polygon fill="none" points="204.53,47.05,209.6926,65.3078,219.6148,58.5587,204.53,47.05" style="stroke:#FFAF37;stroke-width:2.0;"/></g><!--SRC=[XP3BReCm44NtV8Mbh96WKKkGkacHgdOJLKttaR77mG9iD3P1wUFV6vesDO_0ahc7kMUSIGu4oieUIGbb2cWyaqjLKQGbMIFg9j65Hh8GWefbr0yVjRApm8QMG9wWE82LZFQ9jqooN84nvCQ97YZBzwXhnS_hBL9bJX4ewr19GOrPMuiohIquCZnELqBqoVxInPA7qHqCC8qSy1S9We27SH-PhPgy-q9ivJkGq7sqZROmq1nK_52JbYtXI0uE_SklEhvGpgNQarjdzdfsGWNOcMypodNJqe8Mngqn5X2qFLQG3Aw2UCL5D0e_NuCzrZuTeOtP8HXT8mFouNbVplnGiLq5W2UT7TDA0RDIAvUQJhjxBr_tdxxlTugzZiL_FYxWZRJE_jFRFa9y0m00]--></g></svg>

<svg xmlns="http://www.w3.org/2000/svg" width="409" height="374" viewBox="0 0 409 374"><rect width="155" height="39.789" x="7" y="167.79" fill="#3D176E" rx="2.5" ry="2.5" style="stroke:#000d19;stroke-width:.5"/><circle cx="22" cy="187.685" r="11" fill="#ADD1B2" style="stroke:#181818;stroke-width:1"/><path d="M24.969 193.325q-.578.297-1.219.438-.64.156-1.344.156-2.5 0-3.828-1.64-1.312-1.657-1.312-4.782t1.312-4.781q1.328-1.656 3.828-1.656.703 0 1.344.156.656.156 1.219.453v2.719q-.625-.578-1.219-.844-.594-.281-1.219-.281-1.343 0-2.031 1.078-.687 1.062-.687 3.156t.687 3.172q.688 1.062 2.031 1.062.625 0 1.219-.265.594-.281 1.219-.86z"/><text x="41" y="193.57" fill="#D9B8FF" font-family="Helvetica" font-size="17" textLength="113">aws_resource</text><rect width="284" height="39.789" x="49.5" y="328.58" fill="#3D176E" rx="2.5" ry="2.5" style="stroke:#000d19;stroke-width:.5"/><circle cx="64.5" cy="348.474" r="11" fill="#ADD1B2" style="stroke:#181818;stroke-width:1"/><path d="M67.469 354.115q-.578.297-1.219.438-.64.156-1.344.156-2.5 0-3.828-1.64-1.312-1.657-1.312-4.782t1.312-4.781q1.328-1.656 3.828-1.656.703 0 1.344.156.656.156 1.219.453v2.719q-.625-.579-1.219-.844-.594-.281-1.219-.281-1.344 0-2.031 1.078-.687 1.062-.687 3.156t.687 3.172q.688 1.062 2.031 1.062.625 0 1.219-.265.594-.281 1.219-.86z"/><text x="83.5" y="354.36" fill="#D9B8FF" font-family="Helvetica" font-size="17" textLength="242">aws_vpc_peering_connection</text><rect width="205" height="39.789" x="197" y="167.79" fill="#3D176E" rx="2.5" ry="2.5" style="stroke:#000d19;stroke-width:.5"/><circle cx="212" cy="187.685" r="11" fill="#ADD1B2" style="stroke:#181818;stroke-width:1"/><path d="M214.969 193.325q-.578.297-1.219.438-.64.156-1.344.156-2.5 0-3.828-1.64-1.312-1.657-1.312-4.782t1.312-4.781q1.328-1.656 3.828-1.656.703 0 1.344.156.656.156 1.219.453v2.719q-.625-.578-1.219-.844-.594-.281-1.219-.281-1.344 0-2.031 1.078-.687 1.062-.687 3.156t.687 3.172q.688 1.062 2.031 1.062.625 0 1.219-.265.594-.281 1.219-.86z"/><text x="231" y="193.57" fill="#D9B8FF" font-family="Helvetica" font-size="17" textLength="163">peering_connection</text><rect width="113" height="39.789" x="135" y="7" fill="#3D176E" rx="2.5" ry="2.5" style="stroke:#000d19;stroke-width:.5"/><circle cx="150" cy="26.895" r="11" fill="#ADD1B2" style="stroke:#181818;stroke-width:1"/><path d="M152.969 32.535q-.578.297-1.219.438-.64.156-1.344.156-2.5 0-3.828-1.64-1.312-1.657-1.312-4.782t1.312-4.781q1.328-1.656 3.828-1.656.703 0 1.344.156.656.156 1.219.453v2.719q-.625-.578-1.219-.844-.594-.281-1.219-.281-1.344 0-2.031 1.078-.687 1.062-.687 3.156t.687 3.172q.688 1.062 2.031 1.062.625 0 1.219-.265.594-.281 1.219-.86z"/><text x="169" y="32.78" fill="#D9B8FF" font-family="Helvetica" font-size="17" textLength="71">resource</text><path fill="none" d="M168.533 61.979A498557 498557 0 0 1 97.45 167.46m81.14-120.41-15.033 11.576 9.953 6.705zm-71.123 175.719c20.56 30.52 50.483 74.921 71.083 105.481M97.41 207.84l5.08 18.28 9.953-6.704z" style="stroke:#ffaf37;stroke-width:2"/><g fill="none"><path d="M276.346 222.723c-20.76 30.52-50.986 74.967-71.776 105.527" style="stroke:#ffaf37;stroke-width:2"/><path d="m286.47 207.84-15.085 11.509 9.922 6.749z" style="stroke:#ffaf37;stroke-width:2"/></g><g fill="none"><path d="M214.654 61.933c20.76 30.52 50.986 74.967 71.776 105.527" style="stroke:#ffaf37;stroke-width:2"/><path d="m204.53 47.05 5.163 18.258 9.922-6.75z" style="stroke:#ffaf37;stroke-width:2"/></g></svg>
